!!!COM: Music21
!!!OTL: mazurka_Mays
!!!OMV: mazurka_Mays
**kern
*clefG2
*k[f#c#]
*D:
*M3/4
=1
8aL
8gJ
=
8f#L
8aJ
8ddL
8ff#J
8eeL
8ddJ
=
8cc#L
8ddJ
8eeL
8ff#J
8ggL
8eeJ
=
8ff#L
8eeJ
8ff#L
8aaJ
8ggL
8ff#J
=
8eeL
8ddJ
8cc#L
8bJ
8aL
8gJ
=
8f#L
8aJ
8ddL
8ff#J
8eeL
8ddJ
=
8cc#L
8ddJ
8eeL
8ff#J
8ggL
8eeJ
!!linebreak:original
=
8ff#L
8aaJ
8ggL
8ff#J
8eeL
8cc#J
=
2dd
4ryy
=||
*M3/4
8aL
8gJ
=
8f#L
8aJ
8ddL
8ff#J
8eeL
8ddJ
=
8cc#L
8ddJ
8eeL
8ff#J
8ggL
8eeJ
=
8ff#L
8eeJ
8ff#L
8aaJ
8ggL
8ff#J
=
8eeL
8ddJ
8cc#L
8bJ
8aL
8gJ
!!linebreak:original
=
8f#L
8aJ
8ddL
8ff#J
8eeL
8ddJ
=
8cc#L
8ddJ
8eeL
8ff#J
8ggL
8eeJ
=
8ff#L
8aaJ
8ggL
8ff#J
8eeL
8cc#J
=
2dd
4ryy
=||
8aL
8bJ
2ryy
=
8cc#L
8ddJ
8eeL
8cc#J
8aL
8gJ
=
8f#L
8aJ
8ddL
8ff#J
8eeL
8ddJ
!!linebreak:original
=
8cc#L
8ddJ
8eeL
8cc#J
8aL
8gJ
=
8f#L
8eJ
4d
8aL
8bJ
=
8cc#L
8ddJ
8eeL
8cc#J
8aL
8gJ
=
8f#L
8aJ
8ddL
8ff#J
8eeL
8ddJ
=
8eeL
8ff#J
8ggL
8eeJ
8cc#L
8aJ
=
2dd
4ryy
=||
8aL
8bJ
2ryy
!!linebreak:original
=
8cc#L
8ddJ
8eeL
8cc#J
8aL
8gJ
=
8f#L
8aJ
8ddL
8ff#J
8eeL
8ddJ
=
8cc#L
8ddJ
8eeL
8cc#J
8aL
8gJ
=
8f#L
8eJ
4d
8aL
8bJ
=
8cc#L
8ddJ
8eeL
8cc#J
8aL
8gJ
=
8f#L
8aJ
8ddL
8ff#J
8eeL
8ddJ
=
8eeL
8ff#J
8ggL
8eeJ
8cc#L
8aJ
!!linebreak:original
=
2dd
4ryy
=||
8aaL
8ggJ
2ryy
=
8ff#L
8eeJ
8ff#L
8aaJ
8ggL
8ff#J
=
8aL
8bJ
8cc#L
8ddJ
8eeL
8ggJ
=
8ff#L
8eeJ
8ff#L
8aaJ
8ggL
8ff#J
=
8aL
8bJ
8cc#L
8ddJ
4ee
=
8ff#L
8eeJ
8ff#L
8aaJ
8ggL
8ff#J
!!linebreak:original
=
8aL
8bJ
8cc#L
8ddJ
8eeL
8ggJ
=
8ff#L
8aaJ
8ggL
8ff#J
8eeL
8cc#J
=
2dd
4ryy
=||
8aaL
8ggJ
2ryy
=
8ff#L
8eeJ
8ff#L
8aaJ
8ggL
8ff#J
=
8aL
8bJ
8cc#L
8ddJ
8eeL
8ggJ
=
8ff#L
8eeJ
8ff#L
8aaJ
8ggL
8ff#J
!!linebreak:original
=
8aL
8bJ
8cc#L
8ddJ
4ee
=
8ff#L
8eeJ
8ff#L
8aaJ
8ggL
8ff#J
=
8aL
8bJ
8cc#L
8ddJ
8eeL
8ggJ
=
8ff#L
8aaJ
8ggL
8ff#J
8eeL
8cc#J
=
2dd
4ryy
=||
*-
